icon/cg/arrow-long-up.svg

<svg viewBox="0 0 24 24" fill="none" xmlns="http://www.w3.org/2000/svg" height="1em" width="1em">
  <path d="M12.0321 1.01712L7.75751 5.22761L9.161 6.65246L11.0197 4.82165L10.9644 22.9768L12.9644 22.9829L13.0195 4.86974L14.8177 6.69525L16.2425 5.29175L12.0321 1.01712Z" fill="currentColor"/>
</svg>

<svg width="24" height="24" fill="none" xmlns="http://www.w3.org/2000/svg"><path d="m12.032 1.017-4.274 4.21L9.16 6.653l1.859-1.83-.056 18.155 2 .006.056-18.113 1.798 1.825 1.425-1.403-4.21-4.275Z" fill="currentColor"/></svg>
